static/assets/images/icons/safety-warning.svg

<svg width="256" height="256" viewBox="0 0 256 256" fill="none" xmlns="http://www.w3.org/2000/svg">
<path fill-rule="evenodd" clip-rule="evenodd" d="M140.518 25.4676L217.067 56.3168C219.948 57.8586 222.351 60.1302 224.025 62.8935C225.698 65.6568 226.581 68.8098 226.581 72.0219L226.581 104.423C226.581 159.374 192.842 208.992 140.917 230.405C132.526 233.865 123.055 233.865 114.664 230.405C62.7386 208.992 29 159.374 29 104.423V72.0219C28.9992 68.8098 29.8821 65.6568 31.5559 62.8935C33.2297 60.1302 35.6328 57.8586 38.5131 56.3168L115.063 25.4676C123.227 22.1775 132.354 22.1775 140.518 25.4676ZM118 150.033H138V79H118V150.033ZM135.13 183.123C133.21 185.041 130.833 186 128 186C125.173 186.007 122.8 185.051 120.88 183.133C118.96 181.215 118 178.841 118 176.011C118.007 173.187 118.967 170.817 120.88 168.899C122.793 166.981 125.167 166.022 128 166.022C130.827 166.029 133.2 166.988 135.12 168.899C137.04 170.81 138 173.181 138 176.011C138.007 178.835 137.05 181.205 135.13 183.123Z" fill="black"/>
</svg>

<svg xmlns="http://www.w3.org/2000/svg" fill="none" viewBox="0 0 256 256"><path fill="#000" fill-rule="evenodd" d="m140.518 25.468 76.549 30.849a18.1 18.1 0 0 1 6.958 6.577 17.6 17.6 0 0 1 2.556 9.128v32.401c0 54.951-33.739 104.569-85.664 125.982a34.5 34.5 0 0 1-26.253 0C62.739 208.992 29 159.374 29 104.423V72.022c0-3.212.882-6.365 2.556-9.129a18.1 18.1 0 0 1 6.957-6.576l76.55-30.85a34.06 34.06 0 0 1 25.455 0M118 150.033h20V79h-20zm17.13 33.09Q132.25 186 128 186q-4.24.01-7.12-2.867t-2.88-7.122q.01-4.236 2.88-7.112t7.12-2.877q4.24.01 7.12 2.877t2.88 7.112q.01 4.236-2.87 7.112" clip-rule="evenodd"/></svg>
